image/footer-icons/union.svg

<svg width="30" height="30" viewBox="0 0 30 30" fill="none" xmlns="http://www.w3.org/2000/svg">
<path fill-rule="evenodd" clip-rule="evenodd" d="M0 15C0 6.71575 6.71575 0 15 0C23.2842 0 30 6.71575 30 15C30 23.2843 23.2842 30 15 30C6.71575 30 0 23.2843 0 15ZM4.03839 10.7903C5.2284 7.69293 7.69313 5.22725 10.7904 4.03678L12.45 7.98C11.426 8.35318 10.4956 8.94507 9.72361 9.71445C8.95163 10.4838 8.35662 11.4122 7.98 12.435L4.03839 10.7903ZM10.7781 25.9569C7.68688 24.7651 5.22729 22.3029 4.03873 19.2104L7.98 17.58C8.354 18.6001 8.94655 19.5261 9.71611 20.293C10.4857 21.06 11.4136 21.6494 12.435 22.02L10.7781 25.9569ZM25.9568 19.2219C24.7668 22.3085 22.31 24.7658 19.2233 25.9563L17.595 22.02C18.6118 21.6433 19.5344 21.0496 20.2985 20.2802C21.0627 19.5109 21.6501 18.5843 22.02 17.565L25.9568 19.2219ZM19.2293 4.04437C22.3128 5.23596 24.7669 7.69225 25.9564 10.7766L22.02 12.405C21.6443 11.3942 21.0543 10.4767 20.2904 9.71542C19.5266 8.95418 18.6071 8.36727 17.595 7.995L19.2293 4.04437ZM10.5 15C10.5 17.49 12.51 19.5 15 19.5C17.49 19.5 19.5 17.49 19.5 15C19.5 12.51 17.49 10.5 15 10.5C12.51 10.5 10.5 12.51 10.5 15Z" fill="white"/>
</svg>

<svg fill="none" height="30" width="30" xmlns="http://www.w3.org/2000/svg"><path clip-rule="evenodd" d="M0 15C0 6.716 6.716 0 15 0c8.284 0 15 6.716 15 15 0 8.284-6.716 15-15 15-8.284 0-15-6.716-15-15zm4.038-4.21a11.777 11.777 0 016.752-6.753l1.66 3.943a7.5 7.5 0 00-4.47 4.455zm6.74 15.167a11.775 11.775 0 01-6.74-6.747l3.942-1.63a7.451 7.451 0 004.455 4.44zm15.179-6.735a11.775 11.775 0 01-6.734 6.734l-1.628-3.936a7.465 7.465 0 004.425-4.455zM19.229 4.044a11.778 11.778 0 016.727 6.733l-3.936 1.628a7.473 7.473 0 00-4.425-4.41zM10.5 15c0 2.49 2.01 4.5 4.5 4.5s4.5-2.01 4.5-4.5-2.01-4.5-4.5-4.5-4.5 2.01-4.5 4.5z" fill="#fff" fill-rule="evenodd"/></svg>
